X:873
T:James Byrne's
R:Slip Jig
O:Ireland
D:Altan: Red Crow
B:Richard Darsie's web page
S:Altan: Red Crow
Z:Transcription, revisions, chords:Mike Long
M:9/8
L:1/8
K:D
"D"dfa afd dcd|"G"Bcd efd "A"cBA|\
"D"dfa afd dcd|[1 "G"Bcd "A"ecA "D"d3:|[2 "G"Bcd "A"ecA "D"def|]
|:"A"ecA ABA ecA|"D"d2e fdf "G"agf|\
"A"ecA ABA ecA|[1 "D"d2e "G"fdc "D"d2f:|[2 "D"d2e "G"fdc "D"d3|]
